icon-themes/breeze_svg/cmd/32/polygon.svg

<svg viewBox="0 0 32 32" xmlns="http://www.w3.org/2000/svg"><path d="m23.609375 5.4355469-18.125 5.1796871 9.710937 17.384766h11.6875l-5.943359-11.884766z" fill="#b3b3b3"/><path d="m25 4-21 6 10 18h1.195312 11.6875.117188 1l-6-12zm-1.390625 1.4355469-2.669922 10.6796871 5.443359 10.884766h-11.746093l-9.152344-16.384766z" fill="#4d4d4d"/></svg>

<svg xmlns="http://www.w3.org/2000/svg" viewBox="0 0 32 32">
 <path 
     style="fill:#b3b3b3" 
     d="M 23.609375 5.4355469 L 5.484375 10.615234 L 15.195312 28 L 26.882812 28 L 20.939453 16.115234 L 23.609375 5.4355469 z "
     />
 <path 
     style="fill:#4d4d4d" 
     d="M 25 4 L 4 10 L 14 28 L 15.195312 28 L 26.882812 28 L 27 28 L 28 28 L 22 16 L 25 4 z M 23.609375 5.4355469 L 20.939453 16.115234 L 26.382812 27 L 14.636719 27 L 5.484375 10.615234 L 23.609375 5.4355469 z "
     />
</svg>
